utils/icons-generator/ic_input_complete_date.svg

<?xml version="1.0" encoding="UTF-8" standalone="no"?>
<svg
   xmlns:dc="http://purl.org/dc/elements/1.1/"
   xmlns:cc="http://creativecommons.org/ns#"
   xmlns:rdf="http://www.w3.org/1999/02/22-rdf-syntax-ns#"
   xmlns:svg="http://www.w3.org/2000/svg"
   xmlns="http://www.w3.org/2000/svg"
   xmlns:sodipodi="http://sodipodi.sourceforge.net/DTD/sodipodi-0.dtd"
   xmlns:inkscape="http://www.inkscape.org/namespaces/inkscape"
   width="1000pt"
   height="1000pt"
   viewBox="0 0 1000 1000"
   version="1.1"
   id="svg174"
   sodipodi:docname="ic_input_complete_date.svg"
   inkscape:version="0.92.4 (5da689c313, 2019-01-14)">
  <metadata
     id="metadata180">
    <rdf:RDF>
      <cc:Work
         rdf:about="">
        <dc:format>image/svg+xml</dc:format>
        <dc:type
           rdf:resource="http://purl.org/dc/dcmitype/StillImage" />
      </cc:Work>
    </rdf:RDF>
  </metadata>
  <defs
     id="defs178" />
  <sodipodi:namedview
     pagecolor="#ffffff"
     bordercolor="#666666"
     borderopacity="1"
     objecttolerance="10"
     gridtolerance="10"
     guidetolerance="10"
     inkscape:pageopacity="0"
     inkscape:pageshadow="2"
     inkscape:window-width="2560"
     inkscape:window-height="1346"
     id="namedview176"
     showgrid="false"
     inkscape:zoom="0.177"
     inkscape:cx="666.66667"
     inkscape:cy="666.66667"
     inkscape:window-x="-11"
     inkscape:window-y="-11"
     inkscape:window-maximized="1"
     inkscape:current-layer="svg174" />
  <g
     id="surface1"
     transform="matrix(0.99749997,0,0,0.99749997,36.875557,1.2499997)">
    <path
       style="fill:#000000;fill-opacity:1;fill-rule:nonzero;stroke:none"
       d="M 727.12109,537.94531 441.40625,823.66016 c -3.71875,3.34765 -8,5.02343 -12.83594,5.02343 -4.83594,0 -9.11328,-1.67578 -12.83203,-5.02343 L 255.02344,662.94531 C 251.67578,659.22656 250,654.94922 250,650.11328 c 0,-4.83984 1.67578,-8.92969 5.02344,-12.27734 l 25.66797,-25.67188 c 3.34765,-3.34765 7.4414,-5.01953 12.27734,-5.01953 4.83594,0 9.11328,1.67188 12.83594,5.01953 L 428.57031,734.93359 676.33984,487.16406 c 3.71875,-3.34765 7.9961,-5.01953 12.83594,-5.01953 4.83594,0 8.92578,1.67188 12.27344,5.01953 l 25.67187,25.67188 c 3.34766,3.34765 5.02344,7.4375 5.02344,12.27734 0,4.83594 -1.67578,9.11328 -5.02344,12.83203 z M 71.429688,928.57031 H 857.14453 V 357.14453 H 71.429688 Z M 285.71484,250 V 89.285156 c 0,-5.207031 -1.67578,-9.484375 -5.02343,-12.835937 -3.34766,-3.347657 -7.625,-5.019531 -12.83594,-5.019531 h -35.71094 c -5.21094,0 -9.48828,1.671874 -12.83594,5.019531 -3.34765,3.351562 -5.02343,7.628906 -5.02343,12.835937 V 250 c 0,5.20703 1.67578,9.48828 5.02343,12.83594 3.34766,3.34765 7.625,5.01953 12.83594,5.01953 h 35.71094 c 5.21094,0 9.48828,-1.67188 12.83594,-5.01953 3.34765,-3.34766 5.02343,-7.62891 5.02343,-12.83594 z m 428.57032,0 V 89.285156 c 0,-5.207031 -1.67188,-9.484375 -5.02344,-12.835937 -3.34766,-3.347657 -7.625,-5.019531 -12.83203,-5.019531 h -35.71485 c -5.20703,0 -9.48828,1.671874 -12.83593,5.019531 -3.34766,3.351562 -5.02344,7.628906 -5.02344,12.835937 V 250 c 0,5.20703 1.67578,9.48828 5.02344,12.83594 3.34765,3.34765 7.6289,5.01953 12.83593,5.01953 h 35.71485 c 5.20703,0 9.48437,-1.67188 12.83203,-5.01953 3.35156,-3.34766 5.02344,-7.62891 5.02344,-12.83594 z m 214.28515,-35.71484 v 714.28515 c 0,19.34766 -7.0664,36.08594 -21.20312,50.22266 C 893.23047,992.92969 876.48828,1000 857.14453,1000 H 71.429688 C 52.082031,1000 35.34375,992.92969 21.207031,978.79297 7.070312,964.65625 0,947.91797 0,928.57031 V 214.28516 c 0,-19.34375 7.070312,-36.08594 21.207031,-50.22266 14.136719,-14.13672 30.875,-21.20703 50.222657,-21.20703 H 142.85547 V 89.285156 c 0,-24.554687 8.74609,-45.574218 26.23047,-63.058594 C 186.57031,8.742188 207.58984,0 232.14453,0 h 35.71094 c 24.55469,0 45.57422,8.742188 63.05859,26.226562 17.48438,17.484376 26.23047,38.503907 26.23047,63.058594 V 142.85547 H 571.42969 V 89.285156 c 0,-24.554687 8.74218,-45.574218 26.22656,-63.058594 C 615.14062,8.742188 636.16016,0 660.71484,0 h 35.71485 C 720.98047,0 742,8.742188 759.48828,26.226562 c 17.48438,17.484376 26.22656,38.503907 26.22656,63.058594 v 53.570314 h 71.42969 c 19.34375,0 36.08594,7.07031 50.22266,21.20703 14.13672,14.13672 21.20312,30.87891 21.20312,50.22266 z m 0,0"
       id="path171"
       inkscape:connector-curvature="0" />
  </g>
</svg>

<?xml version="1.0" encoding="UTF-8"?>
<svg xmlns="http://www.w3.org/2000/svg" xmlns:xlink="http://www.w3.org/1999/xlink" width="1000pt" height="1000pt" viewBox="0 0 1000 1000" version="1.1">
<g id="surface1">
<path style=" stroke:none;fill-rule:nonzero;fill:rgb(0%,0%,0%);fill-opacity:1;" d="M 727.121094 537.945312 L 441.40625 823.660156 C 437.6875 827.007812 433.40625 828.683594 428.570312 828.683594 C 423.734375 828.683594 419.457031 827.007812 415.738281 823.660156 L 255.023438 662.945312 C 251.675781 659.226562 250 654.949219 250 650.113281 C 250 645.273438 251.675781 641.183594 255.023438 637.835938 L 280.691406 612.164062 C 284.039062 608.816406 288.132812 607.144531 292.96875 607.144531 C 297.804688 607.144531 302.082031 608.816406 305.804688 612.164062 L 428.570312 734.933594 L 676.339844 487.164062 C 680.058594 483.816406 684.335938 482.144531 689.175781 482.144531 C 694.011719 482.144531 698.101562 483.816406 701.449219 487.164062 L 727.121094 512.835938 C 730.46875 516.183594 732.144531 520.273438 732.144531 525.113281 C 732.144531 529.949219 730.46875 534.226562 727.121094 537.945312 Z M 71.429688 928.570312 L 857.144531 928.570312 L 857.144531 357.144531 L 71.429688 357.144531 Z M 285.714844 250 L 285.714844 89.285156 C 285.714844 84.078125 284.039062 79.800781 280.691406 76.449219 C 277.34375 73.101562 273.066406 71.429688 267.855469 71.429688 L 232.144531 71.429688 C 226.933594 71.429688 222.65625 73.101562 219.308594 76.449219 C 215.960938 79.800781 214.285156 84.078125 214.285156 89.285156 L 214.285156 250 C 214.285156 255.207031 215.960938 259.488281 219.308594 262.835938 C 222.65625 266.183594 226.933594 267.855469 232.144531 267.855469 L 267.855469 267.855469 C 273.066406 267.855469 277.34375 266.183594 280.691406 262.835938 C 284.039062 259.488281 285.714844 255.207031 285.714844 250 Z M 714.285156 250 L 714.285156 89.285156 C 714.285156 84.078125 712.613281 79.800781 709.261719 76.449219 C 705.914062 73.101562 701.636719 71.429688 696.429688 71.429688 L 660.714844 71.429688 C 655.507812 71.429688 651.226562 73.101562 647.878906 76.449219 C 644.53125 79.800781 642.855469 84.078125 642.855469 89.285156 L 642.855469 250 C 642.855469 255.207031 644.53125 259.488281 647.878906 262.835938 C 651.226562 266.183594 655.507812 267.855469 660.714844 267.855469 L 696.429688 267.855469 C 701.636719 267.855469 705.914062 266.183594 709.261719 262.835938 C 712.613281 259.488281 714.285156 255.207031 714.285156 250 Z M 928.570312 214.285156 L 928.570312 928.570312 C 928.570312 947.917969 921.503906 964.65625 907.367188 978.792969 C 893.230469 992.929688 876.488281 1000 857.144531 1000 L 71.429688 1000 C 52.082031 1000 35.34375 992.929688 21.207031 978.792969 C 7.070312 964.65625 0 947.917969 0 928.570312 L 0 214.285156 C 0 194.941406 7.070312 178.199219 21.207031 164.0625 C 35.34375 149.925781 52.082031 142.855469 71.429688 142.855469 L 142.855469 142.855469 L 142.855469 89.285156 C 142.855469 64.730469 151.601562 43.710938 169.085938 26.226562 C 186.570312 8.742188 207.589844 0 232.144531 0 L 267.855469 0 C 292.410156 0 313.429688 8.742188 330.914062 26.226562 C 348.398438 43.710938 357.144531 64.730469 357.144531 89.285156 L 357.144531 142.855469 L 571.429688 142.855469 L 571.429688 89.285156 C 571.429688 64.730469 580.171875 43.710938 597.65625 26.226562 C 615.140625 8.742188 636.160156 0 660.714844 0 L 696.429688 0 C 720.980469 0 742 8.742188 759.488281 26.226562 C 776.972656 43.710938 785.714844 64.730469 785.714844 89.285156 L 785.714844 142.855469 L 857.144531 142.855469 C 876.488281 142.855469 893.230469 149.925781 907.367188 164.0625 C 921.503906 178.199219 928.570312 194.941406 928.570312 214.285156 Z M 928.570312 214.285156 "/>
</g>
</svg>
